svg/color/din.svg

<?xml version="1.0" encoding="UTF-8" ?>
<!DOCTYPE svg PUBLIC "-//W3C//DTD SVG 1.1//EN" "http://www.w3.org/Graphics/SVG/1.1/DTD/svg11.dtd">
<svg width="250pt" height="250pt" viewBox="0 0 250 250" version="1.1" xmlns="http://www.w3.org/2000/svg">
<g id="#ffffffff">
<path fill="#ffffff" opacity="1.00" d=" M 0.00 0.00 L 1.73 0.00 C 2.23 2.54 4.62 3.95 6.24 5.76 C 9.56 8.79 12.26 12.40 15.49 15.51 C 45.51 45.49 75.49 75.51 105.50 105.50 C 109.74 109.68 113.71 114.17 118.54 117.70 C 118.80 78.47 118.58 39.23 118.65 0.00 L 250.00 0.00 L 250.00 130.77 C 210.53 130.85 171.05 130.58 131.58 130.90 C 133.87 134.38 137.10 137.06 140.00 140.00 C 169.34 169.33 198.67 198.67 228.00 228.00 C 235.02 235.36 242.82 242.00 249.14 250.00 L 0.00 250.00 L 0.00 0.00 M 125.41 1.18 C 125.08 42.36 125.38 83.55 125.26 124.73 C 166.43 124.62 207.61 124.94 248.78 124.57 C 246.19 120.77 242.71 117.74 239.51 114.50 C 204.67 79.67 169.83 44.83 135.00 9.99 C 131.92 6.93 129.03 3.64 125.41 1.18 M 1.24 125.43 C 4.18 129.54 8.02 132.87 11.56 136.45 C 45.55 170.45 79.55 204.45 113.55 238.44 C 117.13 241.98 120.46 245.81 124.57 248.76 C 124.94 207.60 124.61 166.43 124.74 125.27 C 83.57 125.38 42.40 125.07 1.24 125.43 Z" />
</g>
<g id="#242a96ff">
<path fill="#242a96" opacity="1.00" d=" M 1.73 0.00 L 118.65 0.00 C 118.58 39.23 118.80 78.47 118.54 117.70 C 113.71 114.17 109.74 109.68 105.50 105.50 C 75.49 75.51 45.51 45.49 15.49 15.51 C 12.26 12.40 9.56 8.79 6.24 5.76 C 4.62 3.95 2.23 2.54 1.73 0.00 Z" />
<path fill="#242a96" opacity="1.00" d=" M 125.41 1.18 C 129.03 3.64 131.92 6.93 135.00 9.99 C 169.83 44.83 204.67 79.67 239.51 114.50 C 242.71 117.74 246.19 120.77 248.78 124.57 C 207.61 124.94 166.43 124.62 125.26 124.73 C 125.38 83.55 125.08 42.36 125.41 1.18 Z" />
<path fill="#242a96" opacity="1.00" d=" M 1.24 125.43 C 42.40 125.07 83.57 125.38 124.74 125.27 C 124.61 166.43 124.94 207.60 124.57 248.76 C 120.46 245.81 117.13 241.98 113.55 238.44 C 79.55 204.45 45.55 170.45 11.56 136.45 C 8.02 132.87 4.18 129.54 1.24 125.43 Z" />
<path fill="#242a96" opacity="1.00" d=" M 131.58 130.90 C 171.05 130.58 210.53 130.85 250.00 130.77 L 250.00 250.00 L 249.14 250.00 C 242.82 242.00 235.02 235.36 228.00 228.00 C 198.67 198.67 169.34 169.33 140.00 140.00 C 137.10 137.06 133.87 134.38 131.58 130.90 Z" />
</g>
</svg>

<?xml version="1.0" encoding="utf-8"?>
<!-- Generator: Adobe Illustrator 26.0.3, SVG Export Plug-In . SVG Version: 6.00 Build 0)  -->
<svg version="1.1" id="Layer_1" xmlns="http://www.w3.org/2000/svg" xmlns:xlink="http://www.w3.org/1999/xlink" x="0px" y="0px"
	 viewBox="0 0 250 250" style="enable-background:new 0 0 250 250;" xml:space="preserve">
<style type="text/css">
	.st0{fill:#242A96;}
</style>
<g id="_x23_242a96ff">
	<path class="st0" d="M1.7,0h116.9c-0.1,39.2,0.2,78.5-0.1,117.7c-4.8-3.5-8.8-8-13-12.2c-30-30-60-60-90-90
		c-3.2-3.1-5.9-6.7-9.2-9.8C4.6,4,2.2,2.5,1.7,0z"/>
	<path class="st0" d="M125.4,1.2c3.6,2.5,6.5,5.8,9.6,8.8c34.8,34.8,69.7,69.7,104.5,104.5c3.2,3.2,6.7,6.3,9.3,10.1
		c-41.2,0.4-82.4,0.1-123.5,0.2C125.4,83.6,125.1,42.4,125.4,1.2z"/>
	<path class="st0" d="M1.2,125.4c41.2-0.4,82.3-0.1,123.5-0.2c-0.1,41.2,0.2,82.3-0.2,123.5c-4.1-2.9-7.4-6.8-11-10.3
		c-34-34-68-68-102-102C8,132.9,4.2,129.5,1.2,125.4z"/>
	<path class="st0" d="M131.6,130.9c39.5-0.3,78.9,0,118.4-0.1V250h-0.9c-6.3-8-14.1-14.6-21.1-22c-29.3-29.3-58.7-58.7-88-88
		C137.1,137.1,133.9,134.4,131.6,130.9z"/>
</g>
</svg>
